X: 8802
T: Cuckoo, The
R: hornpipe
M: 4/4
K: Gmajor
BABd cBcA|(3dcd (3gfe dBGF|EGcB AGFG|(3ABA (3GFE (3DED (3cBA|
BDGd cBcA|(3dcd (3gfe dBGF|E2cB AGFG|1 A<DFA ~G3 A:|2 A<DFA ~G2 ga||
|:bg (3gfg dGBd|bg (3gfg d2 ab|c'a (3aga ea (3aga|c'a (3aga e2ga|
bg (3gfg dGBd|bg (3gfg d2bg|(3aba (3gag (3faf (3eae|1 (3ded (3cBc (3Bcd g2:|2 (3ded (3cBc (3Bcd gd||

